X: 1
T:Magic Slipper, The
R:polka
D:Begley & Cooney: Meitheal
Z:id:hn-polka-76
M:2/4
L:1/8
K:D
A>B AF|DF Ad|A>B AF|GF EF/E/|DE FG|AB cd|e>d ce|1 d2 dB:|2 d2 de||
fd ge|fd cB|Ad cd|fe ed/e/|fd ge|fd cB|Ag ec|d2 d>e|
fa ge|fd cB|Ad cd|fe ed/e/|fd ge|fd cB|Ag ec|d2 dB||
